; generated by PrusaSlicer 2.9.1 on 2025-04-02 at 20:57:56 UTC

; 

; external perimeters extrusion width = 0.42mm
; perimeters extrusion width = 0.44mm
; infill extrusion width = 0.44mm
; solid infill extrusion width = 0.44mm
; top infill extrusion width = 0.40mm
; support material extrusion width = 0.36mm
; first layer extrusion width = 0.42mm

M201 X500 Y500 Z100 E5000 ; sets maximum accelerations, mm/sec^2
M203 X500 Y500 Z10 E60 ; sets maximum feedrates, mm / sec
M204 S500 T1000 ; sets acceleration (S) and retract acceleration (R), mm/sec^2
M205 X8.00 Y8.00 Z0.40 E5.00 ; sets the jerk limits, mm/sec
M205 S0 T0 ; sets the minimum extruding and travel feed rate, mm/sec

; printing object LineFollowerBracket-Body.stl id:0 copy 0
; stop printing object LineFollowerBracket-Body.stl id:0 copy 0
; printing object LineFollowerBracket-Body.stl id:0 copy 1
; stop printing object LineFollowerBracket-Body.stl id:0 copy 1

;TYPE:Custom
G90 ; use absolute coordinates
M83 ; extruder relative mode
M104 S180 ; set temporary nozzle temp to prevent oozing during homing
M140 S90 ; set final bed temp
G4 S30 ; allow partial nozzle warmup
G28 ; home all axis
G1 Z50 F240
G1 X2.0 Y10 F3000
M104 S245 ; set final nozzle temp
M190 S90 ; wait for bed temp to stabilize
M109 S245 ; wait for nozzle temp to stabilize
G1 Z0.28 F240
G92 E0
G1 X2.0 Y140 E10 F1500 ; prime the nozzle
G1 X2.3 Y140 F5000
G92 E0
G1 X2.3 Y10 E10 F1200 ; prime the nozzle
G92 E0
G21 ; set units to millimeters
G90 ; use absolute coordinates
M83 ; use relative distances for extrusion
; Filament gcode
M107
;LAYER_CHANGE
;Z:0.2
;HEIGHT:0.2
G1 E-5 F3600
G1 Z.2 F9000
G1 X98.255 Y95.495
G1 Z.2
G1 E5 F2400
M204 S500
;TYPE:Skirt/Brim
;WIDTH:0.42
G1 F1200
G1 X98.495 Y95.255 E.01064
G1 X99.859 Y94.448 E.04969
G1 X100.75 Y94.321 E.02822
G1 X130.25 Y94.321 E.92495
G1 X131.785 Y94.715 E.04969
G1 X132.745 Y95.495 E.03878
G1 X133.552 Y96.859 E.04969
G1 X133.679 Y97.75 E.02822
G1 X133.679 Y133.25 E1.11308
G1 X133.285 Y134.785 E.04969
G1 X132.745 Y135.505 E.02822
G1 X132.505 Y135.745 E.01064
G1 X131.141 Y136.552 E.04969
G1 X130.25 Y136.679 E.02822
G1 X100.75 Y136.679 E.92495
G1 X99.215 Y136.285 E.04969
G1 X98.495 Y135.745 E.02822
G1 X98.255 Y135.505 E.01064
G1 X97.448 Y134.141 E.04969
G1 X97.321 Y133.25 E.02822
G1 X97.321 Y97.75 E1.11308
G1 X97.715 Y96.215 E.04969
G1 X98.219 Y95.543 E.02634
G1 E-3.5 F3600
;WIPE_START
G1 F7200
G1 X98.255 Y95.495 E-.0285
G1 X98.495 Y95.255 E-.16122
G1 X99.859 Y94.448 E-.7528
G1 X100.75 Y94.321 E-.4275
G1 X101.024 Y94.321 E-.12998
;WIPE_END
; printing object LineFollowerBracket-Body.stl id:0 copy 0
G1 X120.53 Y103.808 F9000
G1 E5 F2400
;TYPE:Perimeter
;WIDTH:0.419999
G1 F1200
G1 X120.621 Y103.581 E.00767
G1 X121.026 Y102.956 E.02335
G1 X121.508 Y102.482 E.0212
G1 X122.104 Y102.11 E.02203
G1 X122.771 Y101.874 E.02218
G1 X123.441 Y101.791 E.02117
G1 X124.075 Y101.842 E.01994
G1 X124.56 Y101.97 E.01573
G1 X125.166 Y102.256 E.02101
G1 X125.579 Y102.55 E.0159
G1 X125.965 Y102.944 E.01729
G1 X126.372 Y103.567 E.02333
G1 X126.609 Y104.2 E.02119
G1 X126.708 Y104.896 E.02204
G1 X126.653 Y105.602 E.0222
G1 X126.459 Y106.246 E.02109
G1 X126.158 Y106.8 E.01977
G1 X125.723 Y107.316 E.02116
G1 X125.336 Y107.634 E.01571
G1 X124.748 Y107.958 E.02105
G1 X124.186 Y108.138 E.0185
G1 X123.677 Y108.206 E.0161
G1 X122.974 Y108.167 E.02208
G1 X122.327 Y107.989 E.02104
G1 X121.767 Y107.701 E.01974
G1 X121.239 Y107.279 E.02119
G1 X120.912 Y106.899 E.01572
G1 X120.574 Y106.32 E.02102
G1 X120.373 Y105.723 E.01975
G1 X120.357 Y105.618 E.00333
G1 X120.289 Y105.091 E.01666
G1 X120.316 Y104.589 E.01576
G1 X120.435 Y104.046 E.01743
G1 X120.508 Y103.864 E.00615
G1 X120.88 Y103.949 F9000
G1 F1200
G1 X120.971 Y103.721 E.0077
G1 X121.335 Y103.171 E.02068
G1 X121.763 Y102.76 E.01861
G1 X122.294 Y102.435 E.01952
G1 X122.885 Y102.233 E.01958
G1 X123.475 Y102.166 E.01862
G1 X123.979 Y102.207 E.01585
G1 X124.464 Y102.335 E.01573
G1 X124.995 Y102.592 E.0185
G1 X125.345 Y102.849 E.01361
G1 X125.695 Y103.207 E.0157
G1 X126.049 Y103.763 E.02067
G1 X126.252 Y104.321 E.01862
G1 X126.334 Y104.938 E.01952
G1 X126.278 Y105.561 E.01961
G1 X126.101 Y106.125 E.01853
G1 X125.862 Y106.566 E.01573
G1 X125.484 Y107.024 E.01862
G1 X125.097 Y107.342 E.01571
G1 X124.576 Y107.622 E.01855
G1 X124.097 Y107.77 E.01572
G1 X123.555 Y107.836 E.01712
G1 X123.007 Y107.791 E.01724
G1 X122.439 Y107.628 E.01853
G1 X121.993 Y107.399 E.01572
G1 X121.525 Y107.033 E.01863
G1 X121.197 Y106.653 E.01574
G1 X120.905 Y106.141 E.01848
G1 X120.746 Y105.665 E.01574
G1 X120.729 Y105.56 E.00334
G1 X120.666 Y105.078 E.01524
G1 X120.695 Y104.578 E.0157
G1 X120.785 Y104.186 E.01261
G1 X120.857 Y104.005 E.00611
G1 X121.229 Y104.09 F9000
;TYPE:External perimeter
G1 F1200
G1 X121.321 Y103.861 E.00774
G1 X121.645 Y103.386 E.01803
G1 X122.018 Y103.038 E.01599
G1 X122.484 Y102.761 E.017
G1 X122.999 Y102.593 E.01698
G1 X123.509 Y102.542 E.01607
G1 X123.883 Y102.571 E.01176
G1 X124.367 Y102.699 E.0157
G1 X124.824 Y102.927 E.01601
G1 X125.076 Y103.112 E.0098
G1 X125.425 Y103.471 E.0157
G1 X125.727 Y103.958 E.01797
G1 X125.895 Y104.441 E.01603
G1 X125.959 Y104.979 E.01699
G1 X125.904 Y105.519 E.01702
G1 X125.744 Y106.004 E.01601
G1 X125.566 Y106.333 E.01173
G1 X125.245 Y106.732 E.01606
G1 X124.857 Y107.05 E.01573
G1 X124.405 Y107.286 E.01599
G1 X124.048 Y107.396 E.01171
G1 X123.539 Y107.459 E.01608
G1 X123.039 Y107.415 E.01574
G1 X122.551 Y107.268 E.01598
G1 X122.219 Y107.098 E.01169
G1 X121.81 Y106.786 E.01613
G1 X121.483 Y106.407 E.01569
G1 X121.236 Y105.961 E.01599
G1 X121.102 Y105.502 E.01499
G1 X121.043 Y105.099 E.01277
G1 X121.073 Y104.601 E.01564
G1 X121.135 Y104.326 E.00884
G1 X121.207 Y104.146 E.00608
G1 E-3.5 F3600
;WIPE_START
G1 F7200
G1 X121.229 Y104.09 E-.02858
G1 X121.321 Y103.861 E-.11722
G1 X121.645 Y103.386 E-.27312
G1 X122.018 Y103.038 E-.24231
G1 X122.484 Y102.761 E-.2575
G1 X122.999 Y102.593 E-.25731
G1 X123.509 Y102.542 E-.24346
G1 X123.678 Y102.555 E-.0805
;WIPE_END
G1 X110.707 Y104.808 F9000
G1 E5 F2400
;TYPE:Perimeter
G1 F1200
G1 X110.684 Y105.411 E.01892
G1 X110.565 Y105.954 E.01743
G1 X110.379 Y106.419 E.0157
G1 X109.974 Y107.044 E.02335
G1 X109.492 Y107.518 E.0212
G1 X109.021 Y107.826 E.01765
G1 X108.534 Y108.038 E.01665
G1 X107.837 Y108.192 E.02238
G1 X107.167 Y108.193 E.02101
G1 X106.614 Y108.085 E.01767
G1 X106.118 Y107.896 E.01664
G1 X105.541 Y107.544 E.02119
G1 X105.034 Y107.056 E.02206
G1 X104.66 Y106.496 E.02111
G1 X104.421 Y105.906 E.01996
G1 X104.317 Y105.415 E.01574
G1 X104.297 Y105.221 E.00611
G1 X104.322 Y104.544 E.02124
G1 X104.432 Y104.054 E.01575
G1 X104.714 Y103.405 E.02219
G1 X105.107 Y102.86 E.02107
G1 X105.551 Y102.45 E.01895
G1 X105.998 Y102.164 E.01664
G1 X106.625 Y101.911 E.0212
G1 X107.282 Y101.797 E.02091
G1 X107.887 Y101.814 E.01898
G1 X108.405 Y101.922 E.01659
G1 X109.031 Y102.178 E.02121
G1 X109.609 Y102.58 E.02207
G1 X110.088 Y103.101 E.02219
G1 X110.426 Y103.68 E.02102
G1 X110.627 Y104.277 E.01975
G1 X110.699 Y104.748 E.01494
G1 X110.331 Y104.829 F9000
G1 F1200
G1 X110.332 Y104.835 E.00019
G1 X110.308 Y105.39 E.01742
G1 X110.215 Y105.814 E.01361
G1 X110.029 Y106.279 E.0157
G1 X109.665 Y106.829 E.02068
G1 X109.237 Y107.24 E.01861
G1 X108.87 Y107.481 E.01377
G1 X108.384 Y107.692 E.01661
G1 X107.768 Y107.821 E.01973
G1 X107.178 Y107.816 E.0185
G1 X106.748 Y107.732 E.01374
G1 X106.252 Y107.544 E.01663
G1 X105.749 Y107.229 E.01861
G1 X105.304 Y106.792 E.01956
G1 X104.98 Y106.297 E.01855
G1 X104.79 Y105.828 E.01587
G1 X104.674 Y105.221 E.01938
G1 X104.69 Y104.626 E.01866
G1 X104.8 Y104.137 E.01572
G1 X105.055 Y103.566 E.01961
G1 X105.406 Y103.09 E.01854
G1 X105.755 Y102.767 E.01491
G1 X106.201 Y102.482 E.0166
G1 X106.755 Y102.265 E.01866
G1 X107.335 Y102.17 E.01843
G1 X107.811 Y102.183 E.01493
G1 X108.329 Y102.291 E.01659
G1 X108.876 Y102.522 E.01862
G1 X109.384 Y102.882 E.01952
G1 X109.803 Y103.347 E.01963
G1 X110.095 Y103.859 E.01848
G1 X110.254 Y104.335 E.01574
G1 X110.322 Y104.769 E.01377
G1 X109.95 Y104.851 F9000
;TYPE:External perimeter
G1 F1200
G1 X109.957 Y104.901 E.00158
G1 X109.927 Y105.399 E.01564
G1 X109.865 Y105.674 E.00884
G1 X109.679 Y106.139 E.0157
G1 X109.355 Y106.614 E.01803
G1 X108.982 Y106.962 E.01599
G1 X108.72 Y107.135 E.00984
G1 X108.233 Y107.347 E.01665
G1 X107.699 Y107.451 E.01706
G1 X107.19 Y107.439 E.01596
G1 X106.882 Y107.38 E.00983
G1 X106.385 Y107.191 E.01667
G1 X105.956 Y106.914 E.01601
G1 X105.574 Y106.529 E.01701
G1 X105.3 Y106.098 E.01601
G1 X105.159 Y105.75 E.01177
G1 X105.051 Y105.221 E.01693
G1 X105.058 Y104.709 E.01605
G1 X105.168 Y104.22 E.01572
G1 X105.396 Y103.727 E.01703
G1 X105.705 Y103.32 E.01602
G1 X105.958 Y103.085 E.01083
G1 X106.404 Y102.8 E.0166
G1 X106.884 Y102.619 E.01608
G1 X107.388 Y102.544 E.01598
G1 X107.734 Y102.552 E.01085
G1 X108.252 Y102.66 E.01659
G1 X108.722 Y102.866 E.01609
G1 X109.159 Y103.185 E.01696
G1 X109.517 Y103.593 E.01702
G1 X109.764 Y104.039 E.01599
G1 X109.898 Y104.498 E.01499
G1 X109.941 Y104.792 E.00932
G1 E-3.5 F3600
;WIPE_START
G1 F7200
G1 X109.95 Y104.851 E-.02835
G1 X109.957 Y104.901 E-.02398
G1 X109.927 Y105.399 E-.23698
G1 X109.865 Y105.674 E-.1339
G1 X109.679 Y106.139 E-.23789
G1 X109.355 Y106.614 E-.27312
G1 X108.982 Y106.962 E-.24231
G1 X108.72 Y107.135 E-.14913
G1 X108.384 Y107.281 E-.17434
;WIPE_END
G1 X101.714 Y98.977 F9000
G1 E5 F2400
;TYPE:Perimeter
G1 F1200
G1 X101.714 Y98.714 E.00825
G1 X129.286 Y98.714 E.8645
G1 X129.286 Y111.286 E.39419
G1 X101.714 Y111.286 E.8645
G1 X101.714 Y99.037 E.38406
G1 X101.485 Y98.337 F9000
G1 F1200
G1 X129.663 Y98.337 E.8835
G1 X129.663 Y111.663 E.41783
G1 X101.337 Y111.663 E.88814
G1 X101.337 Y98.337 E.41783
G1 X101.425 Y98.337 E.00276
G1 X100.96 Y97.996 F9000
;TYPE:External perimeter
G1 F1200
G1 X100.96 Y97.96 E.00113
G1 X130.04 Y97.96 E.91178
G1 X130.04 Y112.04 E.44147
G1 X100.96 Y112.04 E.91178
G1 X100.96 Y98.056 E.43846
G1 E-3.5 F3600
;WIPE_START
G1 F7200
G1 X100.96 Y97.996 E-.0285
G1 X100.96 Y97.96 E-.0171
G1 X104.022 Y97.96 E-1.4544
;WIPE_END
G1 X128.397 Y98.835 F9000
G1 E5 F2400
;TYPE:Solid infill
;WIDTH:0.422618
G1 F1200
G1 X128.995 Y99.433 E.0267
G1 X128.995 Y99.97 E.01695
G1 X128.03 Y99.005 E.04309
G1 X127.493 Y99.005 E.01695
G1 X128.995 Y100.507 E.06706
G1 X128.995 Y101.044 E.01695
G1 X126.956 Y99.005 E.09104
G1 X126.419 Y99.005 E.01695
G1 X128.995 Y101.581 E.11502
G1 X128.995 Y102.118 E.01695
G1 X125.882 Y99.005 E.13899
G1 X125.345 Y99.005 E.01695
G1 X128.995 Y102.655 E.16297
G1 X128.995 Y103.192 E.01695
G1 X124.808 Y99.005 E.18695
G1 X124.271 Y99.005 E.01695
G1 X128.995 Y103.729 E.21092
G1 X128.995 Y104.266 E.01695
G1 X123.734 Y99.005 E.2349
G1 X123.197 Y99.005 E.01695
G1 X128.995 Y104.803 E.25888
G1 X128.995 Y105.34 E.01695
G1 X122.66 Y99.005 E.28286
G1 X122.123 Y99.005 E.01695
G1 X124.926 Y101.807 E.12513
G1 X125.304 Y102 E.0134
G1 X125.671 Y102.25 E.01402
G1 X125.82 Y102.38 E.00624
G1 X126.177 Y102.745 E.01612
G1 X126.342 Y102.958 E.00851
G1 X126.623 Y103.422 E.01713
G1 X126.695 Y103.576 E.00537
G1 X128.995 Y105.877 E.10272
G1 X128.995 Y106.414 E.01695
G1 X126.941 Y104.359 E.09173
G1 X127.001 Y104.956 E.01894
G1 X128.995 Y106.951 E.08905
G1 X128.995 Y107.488 E.01695
G1 X126.958 Y105.45 E.09097
G1 X126.931 Y105.715 E.00841
G1 X126.872 Y105.901 E.00616
G1 X128.995 Y108.025 E.09481
G1 X128.995 Y108.562 E.01695
G1 X126.743 Y106.309 E.10057
G1 X126.65 Y106.53 E.00757
G1 X126.568 Y106.671 E.00515
G1 X128.995 Y109.098 E.10836
G1 X128.995 Y109.635 E.01695
G1 X126.366 Y107.005 E.11741
G1 X126.129 Y107.306 E.0121
G1 X128.995 Y110.172 E.12797
G1 X128.995 Y110.709 E.01695
G1 X125.863 Y107.577 E.13984
G1 X125.568 Y107.819 E.01205
G1 X128.745 Y110.995 E.14183
G1 X128.208 Y110.995 E.01695
G1 X125.243 Y108.031 E.13236
G1 X124.888 Y108.213 E.0126
G1 X127.671 Y110.995 E.12424
G1 X127.134 Y110.995 E.01695
G1 X124.49 Y108.352 E.11803
G1 X124.239 Y108.424 E.00824
G1 X124.048 Y108.446 E.00607
G1 X126.597 Y110.995 E.11381
G1 X126.06 Y110.995 E.01695
G1 X123.567 Y108.503 E.11129
G1 X122.986 Y108.459 E.0184
G1 X125.692 Y111.165 E.12082
G1 E-3.5 F3600
;WIPE_START
G1 F7200
G1 X123.459 Y108.932 E-1.5
;WIPE_END
G1 X121.417 Y98.835 F9000
G1 E5 F2400
G1 F1200
G1 X124.142 Y101.56 E.12167
G1 X123.933 Y101.524 E.0067
G1 X123.552 Y101.507 E.01204
G1 X121.049 Y99.005 E.11174
G1 X120.512 Y99.005 E.01695
G1 X123.046 Y101.538 E.11312
G1 X122.841 Y101.558 E.0065
G1 X122.601 Y101.63 E.00791
G1 X119.975 Y99.005 E.11723
G1 X119.438 Y99.005 E.01695
G1 X122.189 Y101.755 E.12281
G1 X121.83 Y101.933 E.01265
G1 X118.902 Y99.005 E.13073
G1 X118.365 Y99.005 E.01695
G1 X121.493 Y102.133 E.13966
G1 X121.197 Y102.374 E.01205
G1 X117.828 Y99.005 E.15042
G1 X117.291 Y99.005 E.01695
G1 X120.922 Y102.635 E.1621
G1 X120.686 Y102.936 E.01208
G1 X116.754 Y99.005 E.17554
G1 X116.217 Y99.005 E.01695
G1 X120.468 Y103.255 E.18978
G1 X120.293 Y103.618 E.01272
G1 X115.68 Y99.005 E.20597
G1 X115.143 Y99.005 E.01695
G1 X120.147 Y104.009 E.22343
G1 X120.045 Y104.444 E.01411
G1 X114.606 Y99.005 E.24285
G1 X114.069 Y99.005 E.01695
G1 X120.008 Y104.944 E.26517
G1 X119.998 Y105.133 E.00598
G1 X120.052 Y105.525 E.01249
G1 X113.532 Y99.005 E.29112
G1 X112.995 Y99.005 E.01695
G1 X120.224 Y106.234 E.32277
G1 X120.316 Y106.455 E.00756
G1 X120.545 Y106.876 E.01513
G1 X120.688 Y107.084 E.00797
G1 X121.023 Y107.472 E.01618
G1 X121.21 Y107.647 E.00809
G1 X121.598 Y107.938 E.01531
G1 X122.045 Y108.186 E.01614
G1 X122.263 Y108.273 E.00741
G1 X124.986 Y110.995 E.12156
G1 X124.449 Y110.995 E.01695
G1 X112.458 Y99.005 E.53537
G1 X111.921 Y99.005 E.01695
G1 X123.912 Y110.995 E.53537
G1 X123.375 Y110.995 E.01695
G1 X111.384 Y99.005 E.53537
G1 X110.847 Y99.005 E.01695
G1 X122.838 Y110.995 E.53537
G1 X122.301 Y110.995 E.01695
G1 X110.31 Y99.005 E.53537
G1 X109.773 Y99.005 E.01695
G1 X121.764 Y110.995 E.53537
G1 X121.227 Y110.995 E.01695
G1 X109.236 Y99.005 E.53537
G1 X108.699 Y99.005 E.01695
G1 X120.69 Y110.995 E.53537
G1 X120.153 Y110.995 E.01695
G1 X108.162 Y99.005 E.53537
G1 X107.625 Y99.005 E.01695
G1 X119.616 Y110.995 E.53537
G1 X119.079 Y110.995 E.01695
G1 X107.088 Y99.005 E.53537
G1 X106.551 Y99.005 E.01695
G1 X118.542 Y110.995 E.53537
G1 X118.005 Y110.995 E.01695
G1 X110.761 Y103.751 E.32344
G1 X110.685 Y103.548 E.00684
G1 X110.455 Y103.124 E.01523
G1 X110.312 Y102.916 E.00797
G1 X109.977 Y102.527 E.01621
G1 X109.786 Y102.35 E.00822
G1 X109.375 Y102.045 E.01616
G1 X109.155 Y101.915 E.00807
G1 X108.738 Y101.728 E.01443
G1 X106.014 Y99.005 E.1216
G1 X105.477 Y99.005 E.01695
G1 X108.017 Y101.544 E.11339
G1 X107.727 Y101.504 E.00924
G1 X107.442 Y101.507 E.009
G1 X104.94 Y99.005 E.11171
G1 X104.403 Y99.005 E.01695
G1 X106.95 Y101.551 E.1137
G1 X106.73 Y101.583 E.00702
G1 X106.516 Y101.655 E.00713
G1 X103.866 Y99.005 E.11832
G1 X103.329 Y99.005 E.01695
G1 X106.114 Y101.79 E.12435
G1 X105.76 Y101.972 E.01257
G1 X102.792 Y99.005 E.1325
G1 X102.255 Y99.005 E.01695
G1 X105.432 Y102.181 E.14183
G1 X105.137 Y102.423 E.01205
G1 X102.005 Y99.291 E.13984
G1 X102.005 Y99.828 E.01695
G1 X104.87 Y102.693 E.12792
G1 X104.636 Y102.996 E.01209
G1 X102.005 Y100.365 E.11747
G1 X102.005 Y100.902 E.01695
G1 X104.43 Y103.327 E.10828
G1 X104.257 Y103.691 E.01272
G1 X102.005 Y101.439 E.10055
G1 X102.005 Y101.976 E.01695
G1 X104.125 Y104.096 E.09466
G1 X104.032 Y104.54 E.01432
G1 X102.005 Y102.513 E.0905
G1 X102.005 Y103.049 E.01692
G1 X104.008 Y105.053 E.08946
G1 X104.025 Y105.431 E.01195
G1 X104.071 Y105.653 E.00716
G1 X101.835 Y103.417 E.09984
G1 E-3.5 F3600
;WIPE_START
G1 F7200
G1 X104.068 Y105.65 E-1.5
;WIPE_END
G1 X110.735 Y104.262 F9000
G1 E5 F2400
G1 F1200
G1 X117.468 Y110.995 E.30063
G1 X116.931 Y110.995 E.01695
G1 X110.986 Y105.05 E.26544
G1 X110.955 Y105.556 E.01601
G1 X116.394 Y110.995 E.24285
G1 X115.857 Y110.995 E.01695
G1 X110.853 Y105.991 E.22343
G1 X110.707 Y106.382 E.01318
G1 X115.32 Y110.995 E.20597
G1 X114.783 Y110.995 E.01695
G1 X110.532 Y106.745 E.18978
G1 X110.314 Y107.064 E.0122
G1 X114.246 Y110.995 E.17554
G1 X113.709 Y110.995 E.01695
G1 X110.078 Y107.365 E.1621
G1 X109.798 Y107.621 E.01198
G1 X113.172 Y110.995 E.15065
